X:1
T:The Skye Boat Song
C:Trad.
L:1/16
Q:1/4=56
M:6/8
K:HP
%%MIDI gracedivider 8
%%MIDI drone 70 45 33 70 70
%%MIDI droneon
|:{g} A3{d}B{e}A2{Gdc} d3{g}cd2 |{g} e2>f2{g}e2{ag} a6 | {fg} f3{g}ef2{g} B4{GdGe} B2 |{g} A6{GAG} A6 :|
|:{gfg} f3{g}df2{gfg} f6 |{gef} e3{g}Be2{gef} e6 | {Gdc} d3{g}Bd2{gde} d4{c} d2 |{g} B6{GdGe} B6 :|
{g} A3{d}B{e}A2{Gdc} d3{g}cd2 | {g} e2>f2{g}e2{ag} a6 |{fg} f3{g}ef2{g} B4{GdGe} B2 |{g} A6{GAG} A6 | 
{g} A3{d}B{e}A2{Gdc} d3{g}cd2 |{g} e2>f2{g}e2{ag} a6 |{fg} f3{g}ef2{g} B4{d} c2 | {Gdc} d6{gdc} d6 |] 
%%MIDI droneoff

